X: 1
T: Salt Spring
R: reel
Z: 2020 John Chambers <jc:trillian.mit.edu>
S: https://www.facebook.com/groups/Fiddletuneoftheday/ 2020-11-10
S: https://www.facebook.com/groups/Fiddletuneoftheday/photos/
F: https://www.youtube.com/watch?v=AtEFXm7eobg
M: 4/4
L: 1/16
K: A
|:\
e4 e3e f2 e4 f2- | f2e2 cBA2 c4 cBAc |\
B4 B3B c2 B4 c2- | c2B2 AG3 F6 A2 |\
B4 B3B c2 B4 c2- | c2B2 AG3 F6 E2 |\
F4 A3A B2A2 FED2 |
[1 E12 ABcd :|[2 E8- E2AB cBAG |\
|:\
F4 G4 A4 c4 | F4 G4 A8 | F4 G4 A4 c4 |\
[1 c2 B6- B2AB cBAG :|[2 c2 B6- B4 ABcd |]
